packages/kaspersky-hexa-ui-icons/src/iconsSVGs/24/Integration1.svg

<svg width="24" height="24" viewBox="0 0 24 24" fill="none" xmlns="http://www.w3.org/2000/svg">
<path fill-rule="evenodd" clip-rule="evenodd" d="M6.84937 1.30884C8.79625 1.30884 10.3745 2.8871 10.3745 4.83398C10.3745 5.1282 10.3385 5.414 10.2706 5.6872L14.3697 8.20754C13.9236 8.70239 13.5658 9.27829 13.3209 9.91049L9.2551 7.41065C8.62519 7.99902 7.77933 8.35913 6.84937 8.35913C4.90248 8.35913 3.32422 6.78087 3.32422 4.83398C3.32422 2.8871 4.90248 1.30884 6.84937 1.30884ZM8.37451 4.83398C8.37451 3.99167 7.69168 3.30884 6.84937 3.30884C6.00705 3.30884 5.32422 3.99167 5.32422 4.83398C5.32422 5.6763 6.00705 6.35913 6.84937 6.35913C7.69168 6.35913 8.37451 5.6763 8.37451 4.83398Z" fill="black"/>
<path fill-rule="evenodd" clip-rule="evenodd" d="M8 15.8327C9.3819 16.3097 10.3745 17.6219 10.3745 19.1658C10.3745 21.1127 8.79625 22.691 6.84937 22.691C4.90248 22.691 3.32422 21.1127 3.32422 19.1658C3.32422 17.5118 4.46341 16.1238 6 15.7437V10.2942C6.27687 10.337 6.56053 10.3591 6.84937 10.3591C7.24394 10.3591 7.62885 10.3178 8 10.2391V15.8327ZM8.37451 19.1658C8.37451 18.3235 7.69168 17.6407 6.84937 17.6407C6.00705 17.6407 5.32422 18.3235 5.32422 19.1658C5.32422 20.0081 6.00705 20.691 6.84937 20.691C7.69168 20.691 8.37451 20.0081 8.37451 19.1658Z" fill="black"/>
<path fill-rule="evenodd" clip-rule="evenodd" d="M22 11.9055C22 9.95866 20.4217 8.3804 18.4749 8.3804C16.528 8.3804 14.9497 9.95866 14.9497 11.9055C14.9497 12.2584 15.0015 12.5991 15.098 12.9206L10.9548 15.4681C11.4008 15.9629 11.7586 16.5389 12.0035 17.1711L16.1947 14.5941C16.8094 15.1159 17.6054 15.4307 18.4749 15.4307C20.4217 15.4307 22 13.8524 22 11.9055ZM18.4749 10.3804C19.3172 10.3804 20 11.0632 20 11.9055C20 12.7479 19.3172 13.4307 18.4749 13.4307C17.6325 13.4307 16.9497 12.7479 16.9497 11.9055C16.9497 11.0632 17.6325 10.3804 18.4749 10.3804Z" fill="black"/>
</svg>

<svg xmlns="http://www.w3.org/2000/svg" width="24" height="24" fill="none" viewBox="0 0 24 24"><path fill="#000" fill-rule="evenodd" d="M6.849 1.309c1.947 0 3.525 1.578 3.525 3.525 0 .294-.036.58-.104.853l4.099 2.52A5.53 5.53 0 0 0 13.32 9.91L9.255 7.411c-.63.588-1.476.949-2.406.949-1.947 0-3.525-1.578-3.525-3.525S4.902 1.31 6.849 1.31m1.526 3.524c0-.842-.683-1.525-1.525-1.525s-1.525.683-1.525 1.525.682 1.525 1.524 1.525 1.525-.683 1.525-1.525M8 15.833c1.382.477 2.375 1.789 2.375 3.333 0 1.947-1.578 3.525-3.525 3.525s-3.525-1.578-3.525-3.525c0-1.654 1.139-3.042 2.676-3.422v-5.449c.277.043.561.065.849.065.395 0 .779-.041 1.151-.12zm.375 3.333c0-.842-.683-1.525-1.525-1.525s-1.525.683-1.525 1.525.683 1.525 1.525 1.525 1.525-.683 1.525-1.525M22 11.906c0-1.947-1.578-3.525-3.525-3.525s-3.525 1.578-3.525 3.525c0 .353.052.694.148 1.015l-4.143 2.548a5.53 5.53 0 0 1 1.049 1.703l4.191-2.577a3.51 3.51 0 0 0 2.28.837c1.947 0 3.525-1.578 3.525-3.525m-3.525-1.525c.842 0 1.525.683 1.525 1.525s-.683 1.525-1.525 1.525-1.525-.683-1.525-1.525.683-1.525 1.525-1.525" clip-rule="evenodd"/></svg>
